public/Icons/visa.svg

<svg width="58" height="19" viewBox="0 0 58 19" fill="none" xmlns="http://www.w3.org/2000/svg">
<path d="M54.0865 0.324219H50.4286C49.3228 0.324219 48.4721 0.657381 47.9617 1.74016L40.9862 17.3155H45.9201C45.9201 17.3155 46.7708 15.2333 46.9409 14.7335C47.4513 14.7335 52.3001 14.7335 52.9806 14.7335C53.1508 15.3165 53.5761 17.2322 53.5761 17.2322H57.9996L54.0865 0.324219ZM48.302 11.2353C48.7273 10.2358 50.1734 6.48773 50.1734 6.48773C50.1734 6.57102 50.5988 5.48824 50.7689 4.90521L51.1092 6.40444C51.1092 6.40444 52.0449 10.4857 52.215 11.3186H48.302V11.2353Z" fill="#3362AB"/>
<path d="M41.173 12.1666C41.173 15.7194 37.9865 18.0878 33.039 18.0878C30.9426 18.0878 28.9301 17.6649 27.84 17.1574L28.5108 13.2663L29.0978 13.5201C30.6072 14.1968 31.6135 14.4505 33.4583 14.4505C34.8 14.4505 36.2255 13.943 36.2255 12.7588C36.2255 11.9975 35.6386 11.4899 33.7937 10.644C32.0328 9.79815 29.6848 8.44473 29.6848 5.99166C29.6848 2.60811 32.9552 0.324219 37.5672 0.324219C39.3282 0.324219 40.8376 0.662574 41.76 1.08552L41.0892 4.80742L40.7537 4.46907C39.9152 4.13071 38.8251 3.79236 37.2318 3.79236C35.4708 3.87694 34.6323 4.63824 34.6323 5.31495C34.6323 6.07625 35.6386 6.66837 37.2318 7.42967C39.9152 8.6985 41.173 10.1365 41.173 12.1666Z" fill="#3362AB"/>
<path d="M0 0.670685L0.0832821 0.324219H7.24554C8.24492 0.324219 8.99446 0.670685 9.24431 1.7967L10.8267 9.5922C9.24431 5.4346 5.5799 2.05655 0 0.670685Z" fill="#F9B50B"/>
<path d="M20.8791 0.407509L13.6706 17.3155H8.78199L4.63914 3.1561C7.62199 5.07179 10.1077 8.07025 11.0191 10.1525L11.5163 11.9016L15.9906 0.324219H20.8791V0.407509Z" fill="#3362AB"/>
<path d="M23.1141 0.324219H27.84L24.8326 17.3155H20.1067L23.1141 0.324219Z" fill="#3362AB"/>
</svg>

<svg width="58" height="19" fill="none" xmlns="http://www.w3.org/2000/svg"><path d="M54.087.324h-3.658c-1.106 0-1.957.333-2.467 1.416l-6.976 15.575h4.934s.85-2.082 1.02-2.582h6.04c.17.583.596 2.5.596 2.5H58L54.087.323Zm-5.785 10.911c.425-1 1.871-4.747 1.871-4.747 0 .083.426-1 .596-1.583l.34 1.5s.936 4.08 1.106 4.914h-3.913v-.084ZM41.173 12.167c0 3.552-3.187 5.92-8.134 5.92-2.096 0-4.109-.422-5.199-.93l.67-3.89.588.253c1.51.677 2.515.93 4.36.93 1.342 0 2.767-.507 2.767-1.691 0-.761-.586-1.27-2.431-2.115-1.761-.846-4.11-2.2-4.11-4.652 0-3.384 3.271-5.668 7.883-5.668 1.761 0 3.27.339 4.193.762l-.67 3.721-.336-.338c-.839-.338-1.929-.677-3.522-.677-1.761.085-2.6.846-2.6 1.523 0 .761 1.007 1.353 2.6 2.115 2.683 1.268 3.941 2.707 3.941 4.737Z" fill="#3362AB"/><path d="M0 .67.083.325h7.163c.999 0 1.748.347 1.998 1.473l1.583 7.795C9.244 5.435 5.58 2.057 0 .671Z" fill="#F9B50B"/><path d="m20.88.408-7.21 16.907H8.783L4.639 3.156c2.983 1.916 5.469 4.914 6.38 6.996l.497 1.75L15.991.324h4.888v.084ZM23.114.324h4.726l-3.007 16.992h-4.726L23.114.323Z" fill="#3362AB"/></svg>
